<?xml version="1.0" encoding="UTF-8"?>
<!-- Generated by Courier Cat TMX Converter -->
<map version="1.10" tiledversion="1.11.0" orientation="orthogonal" renderorder="right-down"
     width="60" height="30" tilewidth="16" tileheight="16" infinite="0" nextlayerid="3" nextobjectid="1">

  <!-- Object Layer: Contains all game entities -->
  <objectgroup id="2" name="Entities">

    <!-- Spawn Point -->
    <object id="1" name="PlayerSpawn" type="SpawnPoint" x="32" y="136" width="16" height="16"/>

    <!-- Platforms -->
    <object id="2" name="Platform1" type="Platform" x="0" y="160" width="96" height="340">
      <properties>
        <property name="type" value="rooftop"/>
        <property name="friction" type="float" value="1"/>
        <property name="grippable" type="bool" value="true"/>
      </properties>
    </object>
    <object id="3" name="Platform2" type="Platform" x="144" y="160" width="80" height="340">
      <properties>
        <property name="type" value="rooftop"/>
        <property name="friction" type="float" value="1"/>
        <property name="grippable" type="bool" value="true"/>
      </properties>
    </object>
    <object id="4" name="Platform3" type="Platform" x="288" y="152" width="80" height="348">
      <properties>
        <property name="type" value="rooftop"/>
        <property name="friction" type="float" value="1"/>
        <property name="grippable" type="bool" value="true"/>
      </properties>
    </object>
    <object id="5" name="Platform4" type="Platform" x="288" y="112" width="64" height="388">
      <properties>
        <property name="type" value="rooftop"/>
        <property name="friction" type="float" value="1"/>
        <property name="grippable" type="bool" value="true"/>
      </properties>
    </object>
    <object id="6" name="Platform5" type="Platform" x="448" y="128" width="96" height="372">
      <properties>
        <property name="type" value="rooftop"/>
        <property name="friction" type="float" value="1"/>
        <property name="grippable" type="bool" value="true"/>
      </properties>
    </object>
    <object id="7" name="Platform6" type="Platform" x="528" y="80" width="48" height="420">
      <properties>
        <property name="type" value="rooftop"/>
        <property name="friction" type="float" value="1"/>
        <property name="grippable" type="bool" value="true"/>
      </properties>
    </object>
    <object id="8" name="Platform7" type="Platform" x="624" y="104" width="80" height="396">
      <properties>
        <property name="type" value="rooftop"/>
        <property name="friction" type="float" value="1"/>
        <property name="grippable" type="bool" value="true"/>
      </properties>
    </object>
    <object id="9" name="Platform8" type="Platform" x="768" y="136" width="80" height="364">
      <properties>
        <property name="type" value="rooftop"/>
        <property name="friction" type="float" value="1"/>
        <property name="grippable" type="bool" value="true"/>
      </properties>
    </object>
    <object id="10" name="Platform9" type="Platform" x="944" y="112" width="80" height="388">
      <properties>
        <property name="type" value="rooftop"/>
        <property name="friction" type="float" value="1"/>
        <property name="grippable" type="bool" value="true"/>
      </properties>
    </object>
    <object id="11" name="Platform10" type="Platform" x="1088" y="160" width="96" height="340">
      <properties>
        <property name="type" value="rooftop"/>
        <property name="friction" type="float" value="1"/>
        <property name="grippable" type="bool" value="true"/>
      </properties>
    </object>

    <!-- Delivery Zones -->
    <object id="12" name="delivery_1" type="DeliveryZone" x="48" y="148" width="16" height="24">
      <properties>
        <property name="type" value="standard"/>
        <property name="recipient_name" value="Early Riser's Apartment"/>
        <property name="glow_color" value="table: 0x022463fda658"/>
      </properties>
    </object>
    <object id="13" name="delivery_2" type="DeliveryZone" x="176" y="148" width="16" height="24">
      <properties>
        <property name="type" value="standard"/>
        <property name="recipient_name" value="Corner Bookshop"/>
        <property name="glow_color" value="table: 0x022463fdac60"/>
      </properties>
    </object>
    <object id="14" name="delivery_3" type="DeliveryZone" x="312" y="100" width="16" height="24">
      <properties>
        <property name="type" value="standard"/>
        <property name="recipient_name" value="Painter's Loft"/>
        <property name="glow_color" value="table: 0x022463fdb1d0"/>
      </properties>
    </object>
    <object id="15" name="delivery_4" type="DeliveryZone" x="480" y="116" width="16" height="24">
      <properties>
        <property name="type" value="standard"/>
        <property name="recipient_name" value="Tea House"/>
        <property name="glow_color" value="table: 0x022463fe1358"/>
      </properties>
    </object>
    <object id="16" name="delivery_5" type="DeliveryZone" x="648" y="92" width="16" height="24">
      <properties>
        <property name="type" value="standard"/>
        <property name="recipient_name" value="Watchmaker's Tower"/>
        <property name="glow_color" value="table: 0x022463fe15e8"/>
      </properties>
    </object>
    <object id="17" name="delivery_6" type="DeliveryZone" x="800" y="124" width="16" height="24">
      <properties>
        <property name="type" value="standard"/>
        <property name="recipient_name" value="Night Owl Diner"/>
        <property name="glow_color" value="table: 0x022463fe1870"/>
      </properties>
    </object>
    <object id="18" name="delivery_7" type="DeliveryZone" x="1128" y="148" width="16" height="24">
      <properties>
        <property name="type" value="standard"/>
        <property name="glow_color" value="table: 0x022463fe2480"/>
        <property name="special" type="bool" value="true"/>
        <property name="recipient_name" value="Lonely Lighthouse"/>
      </properties>
    </object>

    <!-- Hazards -->
    <object id="19" name="Hazard1" type="Hazard" x="360" y="144" width="16" height="16">
      <properties>
        <property name="type" value="steam_vent"/>
        <property name="cycle_time" type="float" value="3.5"/>
        <property name="active_time" type="float" value="1"/>
        <property name="push_force" type="float" value="-180"/>
        <property name="warning_time" type="float" value="0.5"/>
      </properties>
    </object>
    <object id="20" name="Hazard2" type="Hazard" x="512" y="98" width="64" height="4">
      <properties>
        <property name="type" value="laundry_line"/>
        <property name="stun_duration" type="float" value="0.5"/>
        <property name="slow_multiplier" type="float" value="0.4"/>
        <property name="height_above_ground" type="float" value="24"/>
      </properties>
    </object>
    <object id="21" name="Hazard3" type="Hazard" x="1016" y="104" width="16" height="16">
      <properties>
        <property name="type" value="steam_vent"/>
        <property name="cycle_time" type="float" value="3.5"/>
        <property name="active_time" type="float" value="1"/>
        <property name="push_force" type="float" value="-180"/>
        <property name="warning_time" type="float" value="0.5"/>
      </properties>
    </object>

    <!-- Powerups -->
    <object id="22" name="Powerup1" type="Powerup" x="546" y="54" width="12" height="12">
      <properties>
        <property name="type" value="coffee"/>
        <property name="duration" type="float" value="10"/>
        <property name="speed_multiplier" type="float" value="1.5"/>
      </properties>
    </object>
    <object id="23" name="Powerup2" type="Powerup" x="970" y="86" width="12" height="12">
      <properties>
        <property name="type" value="coffee"/>
        <property name="duration" type="float" value="10"/>
        <property name="speed_multiplier" type="float" value="1.5"/>
      </properties>
    </object>

  </objectgroup>
</map>