<?xml version="1.0" encoding="UTF-8"?>
<!-- Generated by Courier Cat TMX Converter -->
<map version="1.10" tiledversion="1.11.0" orientation="orthogonal" renderorder="right-down"
     width="60" height="30" tilewidth="16" tileheight="16" infinite="0" nextlayerid="3" nextobjectid="1">

  <!-- Object Layer: Contains all game entities -->
  <objectgroup id="2" name="Entities">

    <!-- Spawn Point -->
    <object id="1" name="PlayerSpawn" type="SpawnPoint" x="32" y="136" width="16" height="16"/>

    <!-- Platforms -->
    <object id="2" name="Platform1" type="Platform" x="0" y="160" width="96" height="340">
      <properties>
        <property name="type" value="rooftop"/>
        <property name="friction" type="float" value="1"/>
        <property name="grippable" type="bool" value="true"/>
      </properties>
    </object>
    <object id="3" name="Platform2" type="Platform" x="128" y="160" width="80" height="340">
      <properties>
        <property name="type" value="rooftop"/>
        <property name="friction" type="float" value="1"/>
        <property name="grippable" type="bool" value="true"/>
      </properties>
    </object>
    <object id="4" name="Platform3" type="Platform" x="160" y="128" width="64" height="372">
      <properties>
        <property name="type" value="rooftop"/>
        <property name="friction" type="float" value="1"/>
        <property name="grippable" type="bool" value="true"/>
      </properties>
    </object>
    <object id="5" name="Platform4" type="Platform" x="272" y="152" width="80" height="348">
      <properties>
        <property name="type" value="rooftop"/>
        <property name="friction" type="float" value="1"/>
        <property name="grippable" type="bool" value="true"/>
      </properties>
    </object>
    <object id="6" name="Platform5" type="Platform" x="272" y="112" width="48" height="388">
      <properties>
        <property name="type" value="rooftop"/>
        <property name="friction" type="float" value="1"/>
        <property name="grippable" type="bool" value="true"/>
      </properties>
    </object>
    <object id="7" name="Platform6" type="Platform" x="416" y="144" width="96" height="356">
      <properties>
        <property name="type" value="rooftop"/>
        <property name="friction" type="float" value="1"/>
        <property name="grippable" type="bool" value="true"/>
      </properties>
    </object>
    <object id="8" name="Platform7" type="Platform" x="416" y="96" width="64" height="404">
      <properties>
        <property name="type" value="rooftop"/>
        <property name="friction" type="float" value="1"/>
        <property name="grippable" type="bool" value="true"/>
      </properties>
    </object>
    <object id="9" name="Platform8" type="Platform" x="560" y="128" width="48" height="372">
      <properties>
        <property name="type" value="rooftop"/>
        <property name="friction" type="float" value="1"/>
        <property name="grippable" type="bool" value="true"/>
      </properties>
    </object>
    <object id="10" name="Platform9" type="Platform" x="560" y="80" width="48" height="420">
      <properties>
        <property name="type" value="rooftop"/>
        <property name="friction" type="float" value="1"/>
        <property name="grippable" type="bool" value="true"/>
      </properties>
    </object>
    <object id="11" name="Platform10" type="Platform" x="560" y="48" width="48" height="452">
      <properties>
        <property name="type" value="rooftop"/>
        <property name="friction" type="float" value="1"/>
        <property name="grippable" type="bool" value="true"/>
      </properties>
    </object>
    <object id="12" name="Platform11" type="Platform" x="688" y="120" width="80" height="380">
      <properties>
        <property name="type" value="rooftop"/>
        <property name="friction" type="float" value="1"/>
        <property name="grippable" type="bool" value="true"/>
      </properties>
    </object>
    <object id="13" name="Platform12" type="Platform" x="688" y="64" width="48" height="436">
      <properties>
        <property name="type" value="rooftop"/>
        <property name="friction" type="float" value="1"/>
        <property name="grippable" type="bool" value="true"/>
      </properties>
    </object>
    <object id="14" name="Platform13" type="Platform" x="848" y="136" width="80" height="364">
      <properties>
        <property name="type" value="rooftop"/>
        <property name="friction" type="float" value="1"/>
        <property name="grippable" type="bool" value="true"/>
      </properties>
    </object>
    <object id="15" name="Platform14" type="Platform" x="1008" y="112" width="80" height="388">
      <properties>
        <property name="type" value="rooftop"/>
        <property name="friction" type="float" value="1"/>
        <property name="grippable" type="bool" value="true"/>
      </properties>
    </object>
    <object id="16" name="Platform15" type="Platform" x="1168" y="96" width="80" height="404">
      <properties>
        <property name="type" value="rooftop"/>
        <property name="friction" type="float" value="1"/>
        <property name="grippable" type="bool" value="true"/>
      </properties>
    </object>
    <object id="17" name="Platform16" type="Platform" x="1328" y="160" width="96" height="340">
      <properties>
        <property name="type" value="rooftop"/>
        <property name="friction" type="float" value="1"/>
        <property name="grippable" type="bool" value="true"/>
      </properties>
    </object>

    <!-- Delivery Zones -->
    <object id="18" name="delivery_1" type="DeliveryZone" x="48" y="148" width="16" height="24">
      <properties>
        <property name="type" value="standard"/>
        <property name="glow_color" value="table: 0x0222498397a0"/>
        <property name="recipient_name" value="Dawn Watcher's Perch"/>
      </properties>
    </object>
    <object id="19" name="delivery_2" type="DeliveryZone" x="184" y="116" width="16" height="24">
      <properties>
        <property name="type" value="standard"/>
        <property name="glow_color" value="table: 0x022249839a78"/>
        <property name="recipient_name" value="Stargazer's Balcony"/>
      </properties>
    </object>
    <object id="20" name="delivery_3" type="DeliveryZone" x="296" y="140" width="16" height="24">
      <properties>
        <property name="type" value="standard"/>
        <property name="glow_color" value="table: 0x022249839d80"/>
        <property name="recipient_name" value="Corner Newsstand"/>
      </properties>
    </object>
    <object id="21" name="delivery_4" type="DeliveryZone" x="448" y="84" width="16" height="24">
      <properties>
        <property name="type" value="standard"/>
        <property name="glow_color" value="table: 0x02224983a0b8"/>
        <property name="recipient_name" value="Skyline Observatory"/>
      </properties>
    </object>
    <object id="22" name="delivery_5" type="DeliveryZone" x="576" y="36" width="16" height="24">
      <properties>
        <property name="type" value="standard"/>
        <property name="glow_color" value="table: 0x02224983a3c0"/>
        <property name="recipient_name" value="Tower Summit"/>
      </properties>
    </object>
    <object id="23" name="delivery_6" type="DeliveryZone" x="704" y="52" width="16" height="24">
      <properties>
        <property name="type" value="standard"/>
        <property name="glow_color" value="table: 0x02224983a6e8"/>
        <property name="recipient_name" value="Clocktower Penthouse"/>
      </properties>
    </object>
    <object id="24" name="delivery_7" type="DeliveryZone" x="880" y="124" width="16" height="24">
      <properties>
        <property name="type" value="standard"/>
        <property name="glow_color" value="table: 0x02224983a9f0"/>
        <property name="recipient_name" value="Midtown Residence"/>
      </properties>
    </object>
    <object id="25" name="delivery_8" type="DeliveryZone" x="1040" y="100" width="16" height="24">
      <properties>
        <property name="type" value="standard"/>
        <property name="glow_color" value="table: 0x02224984e9b0"/>
        <property name="recipient_name" value="Aerial Garden"/>
      </properties>
    </object>
    <object id="26" name="delivery_9" type="DeliveryZone" x="1368" y="148" width="16" height="24">
      <properties>
        <property name="type" value="standard"/>
        <property name="letter_fragment_id" type="int" value="fragment_003"/>
        <property name="special" type="bool" value="true"/>
        <property name="glow_color" value="table: 0x02224984ec70"/>
        <property name="recipient_name" value="Journey's End"/>
      </properties>
    </object>

    <!-- Hazards -->
    <object id="27" name="Hazard1" type="Hazard" x="344" y="144" width="16" height="16">
      <properties>
        <property name="type" value="steam_vent"/>
        <property name="push_force" type="float" value="-180"/>
        <property name="warning_time" type="float" value="0.5"/>
        <property name="active_time" type="float" value="1"/>
        <property name="cycle_time" type="float" value="3"/>
      </properties>
    </object>
    <object id="28" name="Hazard2" type="Hazard" x="448" y="118" width="64" height="4">
      <properties>
        <property name="type" value="laundry_line"/>
        <property name="slow_multiplier" type="float" value="0.4"/>
        <property name="stun_duration" type="float" value="0.5"/>
        <property name="height_above_ground" type="float" value="24"/>
      </properties>
    </object>
    <object id="29" name="Hazard3" type="Hazard" x="600" y="120" width="16" height="16">
      <properties>
        <property name="type" value="steam_vent"/>
        <property name="push_force" type="float" value="-180"/>
        <property name="warning_time" type="float" value="0.5"/>
        <property name="active_time" type="float" value="1"/>
        <property name="cycle_time" type="float" value="3"/>
      </properties>
    </object>
    <object id="30" name="Hazard4" type="Hazard" x="728" y="110" width="80" height="4">
      <properties>
        <property name="type" value="laundry_line"/>
        <property name="slow_multiplier" type="float" value="0.4"/>
        <property name="stun_duration" type="float" value="0.5"/>
        <property name="height_above_ground" type="float" value="24"/>
      </properties>
    </object>
    <object id="31" name="Hazard5" type="Hazard" x="1240" y="88" width="16" height="16">
      <properties>
        <property name="type" value="steam_vent"/>
        <property name="push_force" type="float" value="-180"/>
        <property name="warning_time" type="float" value="0.5"/>
        <property name="active_time" type="float" value="1"/>
        <property name="cycle_time" type="float" value="3"/>
      </properties>
    </object>

    <!-- Powerups -->
    <object id="32" name="Powerup1" type="Powerup" x="298" y="86" width="12" height="12">
      <properties>
        <property name="type" value="coffee"/>
        <property name="duration" type="float" value="12"/>
        <property name="speed_multiplier" type="float" value="1.5"/>
      </properties>
    </object>
    <object id="33" name="Powerup2" type="Powerup" x="1122" y="70" width="12" height="12">
      <properties>
        <property name="type" value="coffee"/>
        <property name="duration" type="float" value="12"/>
        <property name="speed_multiplier" type="float" value="1.5"/>
      </properties>
    </object>

  </objectgroup>
</map>