<?xml version="1.0" encoding="UTF-8"?>
<!-- Generated by Courier Cat TMX Converter -->
<map version="1.10" tiledversion="1.11.0" orientation="orthogonal" renderorder="right-down"
     width="60" height="30" tilewidth="16" tileheight="16" infinite="0" nextlayerid="3" nextobjectid="1">

  <!-- Object Layer: Contains all game entities -->
  <objectgroup id="2" name="Entities">

    <!-- Spawn Point -->
    <object id="1" name="PlayerSpawn" type="SpawnPoint" x="24" y="136" width="16" height="16"/>

    <!-- Platforms -->
    <object id="2" name="Platform1" type="Platform" x="0" y="160" width="96" height="16">
      <properties>
        <property name="type" value="brick"/>
      </properties>
    </object>
    <object id="3" name="Platform2" type="Platform" x="144" y="160" width="80" height="16">
      <properties>
        <property name="type" value="brick"/>
      </properties>
    </object>
    <object id="4" name="Platform3" type="Platform" x="272" y="144" width="64" height="16">
      <properties>
        <property name="type" value="brick"/>
      </properties>
    </object>
    <object id="5" name="Platform4" type="Platform" x="384" y="128" width="96" height="16">
      <properties>
        <property name="type" value="brick"/>
      </properties>
    </object>
    <object id="6" name="Platform5" type="Platform" x="528" y="96" width="80" height="16">
      <properties>
        <property name="type" value="brick"/>
      </properties>
    </object>
    <object id="7" name="Platform6" type="Platform" x="672" y="112" width="96" height="16">
      <properties>
        <property name="type" value="brick"/>
      </properties>
    </object>
    <object id="8" name="Platform7" type="Platform" x="816" y="144" width="80" height="16">
      <properties>
        <property name="type" value="brick"/>
      </properties>
    </object>
    <object id="9" name="Platform8" type="Platform" x="944" y="128" width="96" height="16">
      <properties>
        <property name="type" value="brick"/>
      </properties>
    </object>
    <object id="10" name="Platform9" type="Platform" x="1088" y="96" width="80" height="16">
      <properties>
        <property name="type" value="brick"/>
      </properties>
    </object>
    <object id="11" name="Platform10" type="Platform" x="1216" y="128" width="96" height="16">
      <properties>
        <property name="type" value="brick"/>
      </properties>
    </object>
    <object id="12" name="Platform11" type="Platform" x="1360" y="144" width="112" height="16">
      <properties>
        <property name="type" value="brick"/>
      </properties>
    </object>

    <!-- Delivery Zones -->
    <object id="13" name="delivery_1" type="DeliveryZone" x="40" y="144" width="16" height="32">
      <properties>
        <property name="type" value="standard"/>
      </properties>
    </object>
    <object id="14" name="delivery_2" type="DeliveryZone" x="168" y="144" width="16" height="32">
      <properties>
        <property name="type" value="standard"/>
      </properties>
    </object>
    <object id="15" name="delivery_3" type="DeliveryZone" x="296" y="128" width="16" height="32">
      <properties>
        <property name="type" value="standard"/>
      </properties>
    </object>
    <object id="16" name="delivery_4" type="DeliveryZone" x="552" y="80" width="16" height="32">
      <properties>
        <property name="type" value="standard"/>
      </properties>
    </object>
    <object id="17" name="delivery_5" type="DeliveryZone" x="840" y="128" width="16" height="32">
      <properties>
        <property name="type" value="standard"/>
      </properties>
    </object>
    <object id="18" name="delivery_6" type="DeliveryZone" x="1112" y="80" width="16" height="32">
      <properties>
        <property name="type" value="standard"/>
      </properties>
    </object>
    <object id="19" name="delivery_7" type="DeliveryZone" x="1400" y="128" width="16" height="32">
      <properties>
        <property name="type" value="standard"/>
      </properties>
    </object>

    <!-- Hazards -->
    <object id="20" name="Hazard1" type="Hazard" x="216" y="152" width="16" height="16">
      <properties>
        <property name="type" value="steam_vent"/>
      </properties>
    </object>
    <object id="21" name="Hazard2" type="Hazard" x="280" y="118" width="48" height="4">
      <properties>
        <property name="type" value="laundry_line"/>
      </properties>
    </object>
    <object id="22" name="Hazard3" type="Hazard" x="472" y="120" width="16" height="16">
      <properties>
        <property name="type" value="steam_vent"/>
      </properties>
    </object>
    <object id="23" name="Hazard4" type="Hazard" x="576" y="86" width="64" height="4">
      <properties>
        <property name="type" value="laundry_line"/>
      </properties>
    </object>
    <object id="24" name="Hazard5" type="Hazard" x="872" y="118" width="48" height="4">
      <properties>
        <property name="type" value="laundry_line"/>
      </properties>
    </object>
    <object id="25" name="Hazard6" type="Hazard" x="1032" y="120" width="16" height="16">
      <properties>
        <property name="type" value="steam_vent"/>
      </properties>
    </object>

    <!-- Powerups -->
    <object id="26" name="Powerup1" type="Powerup" x="426" y="102" width="12" height="12">
      <properties>
        <property name="type" value="coffee"/>
      </properties>
    </object>
    <object id="27" name="Powerup2" type="Powerup" x="1258" y="102" width="12" height="12">
      <properties>
        <property name="type" value="coffee"/>
      </properties>
    </object>

  </objectgroup>
</map>